symbols/web/psychology/materialsymbolsrounded/psychology_wght700_48px.svg

<svg xmlns="http://www.w3.org/2000/svg" height="48" width="48"><path d="M19.65 44.3q-1 0-1.675-.675T17.3 41.9v-4.55h-2.4q-1.95 0-3.325-1.4-1.375-1.4-1.375-3.3v-4.4h-.95q-1.8 0-2.575-1.475Q5.9 25.3 6.8 23.65l3.4-6.2q1.5-5.95 5.825-9.575Q20.35 4.25 26 4.25q6.45 0 11.1 4.625Q41.75 13.5 41.75 19.9q0 4.55-2.35 8.15-2.35 3.6-6.4 5.6v8.25q0 1.05-.7 1.725t-1.7.675ZM22 39.55h6.25v-8.8l2.35-1.2q2.75-1.3 4.575-3.825Q37 23.2 37 20q0-4.55-3.225-7.775Q30.55 9 26 9q-4.4 0-7.55 2.975Q15.3 14.95 15.1 18.5L12 24.1h2.9v8.55H22Zm3.55-12.25h.8q.45 0 .8-.325.35-.325.45-.775v-1.1q.7-.15 1.2-.475.5-.325.85-.675l1.05.3q.4.15.85.025.45-.125.7-.525l.35-.6q.2-.4.15-.825-.05-.425-.45-.725l-.65-.55q.25-.7.25-1.45t-.25-1.45l.65-.55q.4-.3.45-.725.05-.425-.15-.875l-.35-.55q-.25-.4-.675-.525-.425-.125-.825.025l-1.1.3q-.35-.35-.875-.65-.525-.3-1.175-.5V13q-.1-.45-.45-.775t-.8-.325h-.8q-.45 0-.8.325-.35.325-.4.775l-.05 1.1q-.65.2-1.175.5t-.875.65l-1.05-.3q-.4-.15-.85-.025-.45.125-.7.525l-.3.55q-.25.45-.2.875.05.425.45.725l.65.55q-.25.7-.25 1.45t.25 1.45l-.65.55q-.4.3-.45.725-.05.425.2.825l.3.6q.25.4.7.525.45.125.85-.025l1.05-.3q.35.35.85.675.5.325 1.2.475l.05 1.1q.05.45.4.775.35.325.8.325Zm.4-4.2q-1.45 0-2.475-1.025Q22.45 21.05 22.45 19.6q0-1.45 1.025-2.475Q24.5 16.1 25.95 16.1q1.45 0 2.475 1.025Q29.45 18.15 29.45 19.6q0 1.45-1.025 2.475Q27.4 23.1 25.95 23.1Zm-1.45 1.2Z"/></svg>

<svg xmlns="http://www.w3.org/2000/svg" height="48" width="48"><path d="M19.65 44.3Q18.65 44.3 17.975 43.625Q17.3 42.95 17.3 41.9V37.35H14.9Q12.95 37.35 11.575 35.95Q10.2 34.55 10.2 32.65V28.25H9.25Q7.45 28.25 6.675 26.775Q5.9 25.3 6.8 23.65L10.2 17.45Q11.7 11.5 16.025 7.875Q20.35 4.25 26 4.25Q32.45 4.25 37.1 8.875Q41.75 13.5 41.75 19.9Q41.75 24.45 39.4 28.05Q37.05 31.65 33 33.65V41.9Q33 42.95 32.3 43.625Q31.6 44.3 30.6 44.3ZM22 39.55H28.25V30.75L30.6 29.55Q33.35 28.25 35.175 25.725Q37 23.2 37 20Q37 15.45 33.775 12.225Q30.55 9 26 9Q21.6 9 18.45 11.975Q15.3 14.95 15.1 18.5L12 24.1H14.9V32.65H22ZM25.55 27.3H26.35Q26.8 27.3 27.15 26.975Q27.5 26.65 27.6 26.2V25.1Q28.3 24.95 28.8 24.625Q29.3 24.3 29.65 23.95L30.7 24.25Q31.1 24.4 31.55 24.275Q32 24.15 32.25 23.75L32.6 23.15Q32.8 22.75 32.75 22.325Q32.7 21.9 32.3 21.6L31.65 21.05Q31.9 20.35 31.9 19.6Q31.9 18.85 31.65 18.15L32.3 17.6Q32.7 17.3 32.75 16.875Q32.8 16.45 32.6 16L32.25 15.45Q32 15.05 31.575 14.925Q31.15 14.8 30.75 14.95L29.65 15.25Q29.3 14.9 28.775 14.6Q28.25 14.3 27.6 14.1V13Q27.5 12.55 27.15 12.225Q26.8 11.9 26.35 11.9H25.55Q25.1 11.9 24.75 12.225Q24.4 12.55 24.35 13L24.3 14.1Q23.65 14.3 23.125 14.6Q22.6 14.9 22.25 15.25L21.2 14.95Q20.8 14.8 20.35 14.925Q19.9 15.05 19.65 15.45L19.35 16Q19.1 16.45 19.15 16.875Q19.2 17.3 19.6 17.6L20.25 18.15Q20 18.85 20 19.6Q20 20.35 20.25 21.05L19.6 21.6Q19.2 21.9 19.15 22.325Q19.1 22.75 19.35 23.15L19.65 23.75Q19.9 24.15 20.35 24.275Q20.8 24.4 21.2 24.25L22.25 23.95Q22.6 24.3 23.1 24.625Q23.6 24.95 24.3 25.1L24.35 26.2Q24.4 26.65 24.75 26.975Q25.1 27.3 25.55 27.3ZM25.95 23.1Q24.5 23.1 23.475 22.075Q22.45 21.05 22.45 19.6Q22.45 18.15 23.475 17.125Q24.5 16.1 25.95 16.1Q27.4 16.1 28.425 17.125Q29.45 18.15 29.45 19.6Q29.45 21.05 28.425 22.075Q27.4 23.1 25.95 23.1ZM24.5 24.3Q24.5 24.3 24.5 24.3Q24.5 24.3 24.5 24.3Q24.5 24.3 24.5 24.3Q24.5 24.3 24.5 24.3Q24.5 24.3 24.5 24.3Q24.5 24.3 24.5 24.3Z"/></svg>
